icons/interfaces/macvtap.svg

<svg xmlns="http://www.w3.org/2000/svg" viewBox="0 0 512 512"><path fill="#e3e6eb" d="M168 184.04c-6.632 0-12 5.376-12 12v23.752c0 6.628 5.368 12 12 12 6.624 0 12-5.372 12-12V196.04c0-6.624-5.376-12-12-12m88 0c-6.632 0-12 5.376-12 12v23.752c0 6.628 5.368 12 12 12 6.624 0 12-5.372 12-12V196.04c0-6.624-5.376-12-12-12m-44 0c-6.632 0-12 5.376-12 12v23.752c0 6.628 5.368 12 12 12 6.624 0 12-5.372 12-12V196.04c0-6.624-5.376-12-12-12"/><path fill="#e3e6eb" d="M512 52v408c0 28.72-23.28 52-52 52H52c-28.72 0-52-23.28-52-52V52C0 23.28 23.28 0 52 0h408c28.72 0 52 23.28 52 52m-68 16h-44v92.184c0 6.624-5.376 12-12 12-6.632 0-12-5.376-12-12V68h-20v92.184c0 6.624-5.376 12-12 12-6.632 0-12-5.376-12-12V68h-20v92.184c0 6.624-5.376 12-12 12-6.632 0-12-5.376-12-12V68h-20v92.184c0 6.624-5.376 12-12 12-6.632 0-12-5.376-12-12V68h-20v92.184c0 6.624-5.376 12-12 12-6.632 0-12-5.376-12-12V68h-20v92.184c0 6.624-5.376 12-12 12-6.632 0-12-5.376-12-12V68h-20v92.184c0 6.624-5.376 12-12 12-6.632 0-12-5.376-12-12V68H68v216h88.172c2.212 0 3.828 1.64 3.828 3.848V348h192v-60.152c0-2.208 1.764-3.848 3.976-3.848H444zM45.66 475.06V444.4q0-12.593-1.149-23.597t-2.245-18.123l9.855 38.435h13.14l10.074-39.42q-1.095 8.431-2.135 19.546-1.041 11.114-1.041 23.159v30.66h15.002v-79.935H66.903L58.8 429.289l-8.103-34.164H30.659v79.935zm65.581 0 3.832-18.068h19.053l3.833 18.068h16.753l-19.819-79.935h-20.805L94.487 475.06zm10.621-50.589q.876-4.161 1.588-8.213c.712-4.052.858-4.818 1.15-6.351q.438 2.3 1.259 6.406a438 438 0 0 1 1.588 8.267l3.832 19.272h-13.468zm83.382 48.673q5.968-3.012 9.307-8.432t3.34-12.647h-16.425q0 4.708-2.683 7.282t-7.61 2.573c-4.928 0-5.821-.858-7.61-2.573q-2.683-2.574-2.683-7.282V418.12q0-4.818 2.683-7.337c2.683-2.519 4.325-2.518 7.61-2.518s5.822.839 7.61 2.518q2.683 2.519 2.683 7.337h16.425q0-7.337-3.34-12.702t-9.307-8.377c-5.968-3.011-8.669-3.011-14.071-3.011q-7.994 0-14.016 3.011c-6.022 3.011-7.135 4.8-9.362 8.377s-3.34 7.811-3.34 12.702v33.945q0 7.227 3.34 12.647c3.34 5.42 5.347 6.424 9.362 8.432q6.023 3.01 14.016 3.011 8.103 0 14.071-3.011m61.263 1.916 19.6-79.935h-16.534l-10.731 50.37q-.548 2.738-1.205 6.789c-.657 4.051-.803 5-1.095 6.898q-.438-2.847-1.259-6.898c-.821-4.051-1.004-4.928-1.369-6.68l-11.059-50.479h-16.973l19.82 79.935zm63.397 0v-65.153h20.258v-14.782h-56.94v14.782h20.257v65.153zm44.126 0 3.833-18.068h19.053l3.832 18.068h16.754l-19.82-79.935h-20.805l-19.6 79.935zm10.622-50.589a250 250 0 0 0 1.588-8.213q.711-4.052 1.149-6.351a740 740 0 0 0 1.26 6.406 558 558 0 0 1 1.587 8.267l3.833 19.272H380.6zm59.229 50.589v-29.127h10.841q8.432 0 14.673-3.176c6.241-3.176 7.409-5.091 9.745-8.924s3.504-8.267 3.504-13.304q0-7.665-3.449-13.359c-3.449-5.694-5.548-6.753-9.746-8.87q-6.296-3.175-14.727-3.175h-27.266v79.935zm0-65.7h10.841q5.256 0 8.376 3.175 3.121 3.176 3.121 7.994c0 4.818-1.04 5.876-3.121 7.993q-3.12 3.176-8.376 3.176h-10.841z"/><path fill="#e3e6eb" d="M124 184.04c-6.632 0-12 5.376-12 12v23.752c0 6.628 5.368 12 12 12 6.624 0 12-5.372 12-12V196.04c0-6.624-5.376-12-12-12m264 0c-6.632 0-12 5.376-12 12v23.752c0 6.628 5.368 12 12 12 6.624 0 12-5.372 12-12V196.04c0-6.624-5.376-12-12-12m-44 0c-6.632 0-12 5.376-12 12v23.752c0 6.628 5.368 12 12 12 6.624 0 12-5.372 12-12V196.04c0-6.624-5.376-12-12-12m-44 0c-6.632 0-12 5.376-12 12v23.752c0 6.628 5.368 12 12 12 6.624 0 12-5.372 12-12V196.04c0-6.624-5.376-12-12-12"/></svg>

<svg viewBox="0 0 512 512" xmlns="http://www.w3.org/2000/svg">
  <path fill="#e3e6eb" d="M168 184.036c-6.632 0-12 5.376-12 12v23.752c0 6.628 5.368 12 12 12 6.624 0 12-5.372 12-12v-23.752c0-6.624-5.376-12-12-12M256 184.036c-6.632 0-12 5.376-12 12v23.752c0 6.628 5.368 12 12 12 6.624 0 12-5.372 12-12v-23.752c0-6.624-5.376-12-12-12M212 184.036c-6.632 0-12 5.376-12 12v23.752c0 6.628 5.368 12 12 12 6.624 0 12-5.372 12-12v-23.752c0-6.624-5.376-12-12-12"/>
  <path fill="#e3e6eb" d="M 512 52 L 512 460 C 512 488.72 488.72 512 460 512 L 52 512 C 23.28 512 0 488.72 0 460 L 0 52 C 0 23.28 23.28 0 52 0 L 460 0 C 488.72 0 512 23.28 512 52 Z M 444 68 L 400 68 L 400 160.184 C 400 166.808 394.624 172.184 388 172.184 C 381.368 172.184 376 166.808 376 160.184 L 376 68 L 356 68 L 356 160.184 C 356 166.808 350.624 172.184 344 172.184 C 337.368 172.184 332 166.808 332 160.184 L 332 68 L 312 68 L 312 160.184 C 312 166.808 306.624 172.184 300 172.184 C 293.368 172.184 288 166.808 288 160.184 L 288 68 L 268 68 L 268 160.184 C 268 166.808 262.624 172.184 256 172.184 C 249.368 172.184 244 166.808 244 160.184 L 244 68 L 224 68 L 224 160.184 C 224 166.808 218.624 172.184 212 172.184 C 205.368 172.184 200 166.808 200 160.184 L 200 68 L 180 68 L 180 160.184 C 180 166.808 174.624 172.184 168 172.184 C 161.368 172.184 156 166.808 156 160.184 L 156 68 L 136 68 L 136 160.184 C 136 166.808 130.624 172.184 124 172.184 C 117.368 172.184 112 166.808 112 160.184 L 112 68 L 68 68 L 68 284 L 156.172 284 C 158.384 284 160 285.64 160 287.848 L 160 348 L 352 348 L 352 287.848 C 352 285.64 353.764 284 355.976 284 L 444 284 Z M 45.663 475.06 L 45.663 444.4 C 45.663 436.005 45.28 428.139 44.514 420.803 C 43.747 413.466 42.999 407.425 42.269 402.68 L 52.124 441.115 L 65.264 441.115 L 75.338 401.695 C 74.608 407.316 73.896 413.831 73.203 421.241 C 72.509 428.65 72.162 436.37 72.162 444.4 L 72.162 475.06 L 87.164 475.06 L 87.164 395.125 L 66.906 395.125 L 58.803 429.289 L 50.7 395.125 L 30.662 395.125 L 30.662 475.06 Z M 111.244 475.06 L 115.076 456.992 L 134.129 456.992 L 137.962 475.06 L 154.715 475.06 L 134.896 395.125 L 114.091 395.125 L 94.49 475.06 Z M 121.865 424.471 C 122.449 421.697 122.978 418.959 123.453 416.258 C 123.928 413.557 124.311 411.44 124.603 409.907 C 124.895 411.44 125.315 413.576 125.862 416.313 C 126.409 419.05 126.939 421.806 127.45 424.58 L 131.282 443.852 L 117.814 443.852 Z M 205.247 473.144 C 209.226 471.136 212.328 468.325 214.554 464.712 C 216.781 461.099 217.894 456.883 217.894 452.065 L 201.469 452.065 C 201.469 455.204 200.575 457.631 198.786 459.347 C 196.998 461.062 194.461 461.92 191.176 461.92 C 187.891 461.92 185.355 461.062 183.566 459.347 C 181.777 457.631 180.883 455.204 180.883 452.065 L 180.883 418.12 C 180.883 414.908 181.777 412.462 183.566 410.783 C 185.355 409.104 187.891 408.265 191.176 408.265 C 194.461 408.265 196.998 409.104 198.786 410.783 C 200.575 412.462 201.469 414.908 201.469 418.12 L 217.894 418.12 C 217.894 413.229 216.781 408.995 214.554 405.418 C 212.328 401.841 209.226 399.048 205.247 397.041 C 201.268 395.034 196.578 394.03 191.176 394.03 C 185.847 394.03 181.175 395.034 177.16 397.041 C 173.145 399.048 170.025 401.841 167.798 405.418 C 165.571 408.995 164.458 413.229 164.458 418.12 L 164.458 452.065 C 164.458 456.883 165.571 461.099 167.798 464.712 C 170.025 468.325 173.145 471.136 177.16 473.144 C 181.175 475.151 185.847 476.155 191.176 476.155 C 196.578 476.155 201.268 475.151 205.247 473.144 Z M 266.51 475.06 L 286.11 395.125 L 269.576 395.125 L 258.845 445.495 C 258.48 447.32 258.078 449.583 257.64 452.284 C 257.202 454.985 256.837 457.284 256.545 459.182 C 256.253 457.284 255.833 454.985 255.286 452.284 C 254.739 449.583 254.282 447.356 253.917 445.604 L 242.858 395.125 L 225.885 395.125 L 245.705 475.06 Z M 329.907 475.06 L 329.907 409.907 L 350.165 409.907 L 350.165 395.125 L 293.225 395.125 L 293.225 409.907 L 313.482 409.907 L 313.482 475.06 Z M 374.033 475.06 L 377.866 456.992 L 396.919 456.992 L 400.751 475.06 L 417.505 475.06 L 397.685 395.125 L 376.88 395.125 L 357.28 475.06 Z M 384.655 424.471 C 385.239 421.697 385.768 418.959 386.243 416.258 C 386.717 413.557 387.1 411.44 387.392 409.907 C 387.684 411.44 388.104 413.576 388.652 416.313 C 389.199 419.05 389.728 421.806 390.239 424.58 L 394.072 443.852 L 380.603 443.852 Z M 443.884 475.06 L 443.884 445.933 L 454.725 445.933 C 460.346 445.933 465.237 444.874 469.398 442.757 C 473.559 440.64 476.807 437.666 479.143 433.833 C 481.479 430 482.647 425.566 482.647 420.529 C 482.647 415.419 481.497 410.966 479.198 407.17 C 476.899 403.374 473.65 400.417 469.452 398.3 C 465.255 396.183 460.346 395.125 454.725 395.125 L 427.459 395.125 L 427.459 475.06 Z M 443.884 409.36 L 454.725 409.36 C 458.229 409.36 461.021 410.418 463.101 412.535 C 465.182 414.652 466.222 417.317 466.222 420.529 C 466.222 423.741 465.182 426.405 463.101 428.522 C 461.021 430.639 458.229 431.698 454.725 431.698 L 443.884 431.698 Z"/>
  <path fill="#e3e6eb" d="M124 184.036c-6.632 0-12 5.376-12 12v23.752c0 6.628 5.368 12 12 12 6.624 0 12-5.372 12-12v-23.752c0-6.624-5.376-12-12-12M388 184.036c-6.632 0-12 5.376-12 12v23.752c0 6.628 5.368 12 12 12 6.624 0 12-5.372 12-12v-23.752c0-6.624-5.376-12-12-12M344 184.036c-6.632 0-12 5.376-12 12v23.752c0 6.628 5.368 12 12 12 6.624 0 12-5.372 12-12v-23.752c0-6.624-5.376-12-12-12M300 184.036c-6.632 0-12 5.376-12 12v23.752c0 6.628 5.368 12 12 12 6.624 0 12-5.372 12-12v-23.752c0-6.624-5.376-12-12-12"/>
</svg>
